icon-svg/moes-switch-single.svg

<svg xmlns="http://www.w3.org/2000/svg" viewBox="0 0 24 24"><path fill="#44739e" d="M20.083 2H3.917a1.81 1.81 0 0 0-1.808 1.808v16.384A1.81 1.81 0 0 0 3.917 22h16.166a1.81 1.81 0 0 0 1.808-1.808V3.808A1.81 1.81 0 0 0 20.083 2M21 20.192a.92.92 0 0 1-.919.919H3.917A.92.92 0 0 1 3 20.192V3.808a.92.92 0 0 1 .919-.919h16.164a.92.92 0 0 1 .917.919ZM18.854 8.089a.79.79 0 1 0-.79-.789.79.79 0 0 0 .79.789m.146.942v1.557a.788.788 0 0 0 0-1.557m.542-5.98H4.72a1.5 1.5 0 0 0-1.5 1.5v14.784a1.5 1.5 0 0 0 1.5 1.5h14.822A1.24 1.24 0 0 0 20.78 19.6V4.29a1.24 1.24 0 0 0-1.238-1.239m-5.918 16.356h-2.212a.207.207 0 0 1 0-.413h2.212a.207.207 0 1 1 0 .413m4.109-13.762h1.68L18.4 4.921l.008-.192 1.01-.719h-1.68v-.263h2.194V4l-1.192.818 1.192.815V5.9h-2.199Zm1.121.558a1.1 1.1 0 1 1-1.1 1.1 1.1 1.1 0 0 1 1.1-1.103Zm.879 6.431a.87.87 0 0 0-.933-.717c-.394-.013-1.071 0-1.02-.763h.254c.058.559.58.463.848.495a1.12 1.12 0 0 1 1.085.985Zm-.863-1.728a1 1 0 0 1-.151 0V9.035a.788.788 0 0 0-.3 1.417v.353a1.094 1.094 0 1 1 .456.1Z"/></svg>

<svg xmlns="http://www.w3.org/2000/svg" fill="#44739e" width="24" height="24" viewBox="0 0 24 24">
  <path id="Colore_riempimento_1" data-name="Colore riempimento 1" class="cls-1" d="M 20.083,2 H 3.917 A 1.81,1.81 0 0 0 2.109,3.808 V 20.192 A 1.81,1.81 0 0 0 3.917,22 h 16.166 a 1.81,1.81 0 0 0 1.808,-1.808 V 3.808 A 1.81,1.81 0 0 0 20.083,2 Z M 21,20.192 a 0.92,0.92 0 0 1 -0.919,0.919 H 3.917 A 0.92,0.92 0 0 1 3,20.192 V 3.808 A 0.92,0.92 0 0 1 3.919,2.889 H 20.083 A 0.92,0.92 0 0 1 21,3.808 Z M 18.854,8.089 A 0.79,0.79 0 1 0 18.064,7.3 0.79,0.79 0 0 0 18.854,8.089 Z M 19,9.031 v 1.557 a 0.788,0.788 0 0 0 0,-1.557 z m 0.542,-5.98 H 4.72 a 1.5,1.5 0 0 0 -1.5,1.5 v 14.784 a 1.5,1.5 0 0 0 1.5,1.5 H 19.542 A 1.239,1.239 0 0 0 20.78,19.6 V 4.29 A 1.239,1.239 0 0 0 19.542,3.051 Z m -5.918,16.356 h -2.212 a 0.207,0.207 0 0 1 0,-0.413 h 2.212 a 0.207,0.207 0 1 1 0,0.413 z M 17.733,5.645 h 1.68 L 18.4,4.921 18.408,4.729 19.418,4.01 h -1.68 V 3.747 h 2.194 V 4 L 18.74,4.818 19.932,5.633 V 5.9 h -2.199 z m 1.121,0.558 a 1.1,1.1 0 1 1 -1.1,1.1 1.1,1.1 0 0 1 1.1,-1.103 z m 0.879,6.431 A 0.872,0.872 0 0 0 18.8,11.917 c -0.394,-0.013 -1.071,0 -1.02,-0.763 h 0.254 c 0.058,0.559 0.58,0.463 0.848,0.495 a 1.119,1.119 0 0 1 1.085,0.985 z M 18.87,10.906 a 1.087,1.087 0 0 1 -0.151,0 V 9.035 a 0.788,0.788 0 0 0 -0.3,1.417 v 0.353 a 1.094,1.094 0 1 1 0.456,0.1 z"/>
</svg>
